X:47
M:C
L:1/8
Q:"Moderato  "1/4=140
K:F
!p![F/D/][G/E/]|([A2F2] [BG] [AF][GE][FD][E^C])|\
[d3F3] [GF] [G2E2C2] [FA,][GC]|\
([A2F2] [BG] [AF][GE][FD][E^C])|\
Q:"Animato"
[G3E3][AF][B2F2D2][c2E2A,2]|[d3E3B,3][GF=B,][G2E2C2][cE]B|
([A2F2] [BG] [AF][GE][FD][E^C])|\D3 [E^C] [F2D2][G2E2]|\
[A2F2][f2A2][e3B3G3]f|[d3A3F3] A A2||

